wmt_db/data/mapnik/guidepost.svg

<?xml version="1.0" encoding="UTF-8" standalone="no"?>
<!-- Created with Inkscape (http://www.inkscape.org/) -->

<svg
   xmlns:dc="http://purl.org/dc/elements/1.1/"
   xmlns:cc="http://creativecommons.org/ns#"
   xmlns:rdf="http://www.w3.org/1999/02/22-rdf-syntax-ns#"
   xmlns:svg="http://www.w3.org/2000/svg"
   xmlns="http://www.w3.org/2000/svg"
   xmlns:sodipodi="http://sodipodi.sourceforge.net/DTD/sodipodi-0.dtd"
   xmlns:inkscape="http://www.inkscape.org/namespaces/inkscape"
   width="16"
   height="16"
   viewBox="0 0 16 16"
   id="svg2"
   version="1.1"
   inkscape:version="0.91 r13725"
   sodipodi:docname="guidepost.svg">
  <defs
     id="defs4" />
  <sodipodi:namedview
     id="base"
     pagecolor="#ffffff"
     bordercolor="#666666"
     borderopacity="1.0"
     inkscape:pageopacity="0.0"
     inkscape:pageshadow="2"
     inkscape:zoom="20.568319"
     inkscape:cx="2.2950074"
     inkscape:cy="7.7001812"
     inkscape:document-units="px"
     inkscape:current-layer="layer1"
     showgrid="false"
     units="px"
     inkscape:window-width="1791"
     inkscape:window-height="1019"
     inkscape:window-x="0"
     inkscape:window-y="32"
     inkscape:window-maximized="1"
     showguides="true"
     inkscape:guide-bbox="true"
     inkscape:snap-bbox="true"
     inkscape:bbox-paths="true"
     inkscape:snap-page="true">
    <sodipodi:guide
       position="7.0010581,14.342445"
       orientation="1,0"
       id="guide8151" />
    <sodipodi:guide
       position="8.994415,16.676132"
       orientation="1,0"
       id="guide8153" />
  </sodipodi:namedview>
  <metadata
     id="metadata7">
    <rdf:RDF>
      <cc:Work
         rdf:about="">
        <dc:format>image/svg+xml</dc:format>
        <dc:type
           rdf:resource="http://purl.org/dc/dcmitype/StillImage" />
        <dc:title></dc:title>
      </cc:Work>
    </rdf:RDF>
  </metadata>
  <g
     inkscape:label="Layer 1"
     inkscape:groupmode="layer"
     id="layer1"
     transform="translate(0,-1036.3622)">
    <path
       style="color:#000000;clip-rule:nonzero;display:inline;overflow:visible;visibility:visible;opacity:1;isolation:auto;mix-blend-mode:normal;color-interpolation:sRGB;color-interpolation-filters:linearRGB;solid-color:#000000;solid-opacity:1;fill:#000000;fill-opacity:1;fill-rule:evenodd;stroke:#ffffff;stroke-width:0.5;stroke-linecap:square;stroke-linejoin:miter;stroke-miterlimit:4;stroke-dasharray:none;stroke-dashoffset:0;stroke-opacity:1;color-rendering:auto;image-rendering:auto;shape-rendering:auto;text-rendering:auto;enable-background:accumulate"
       d="M 7.0488281 0.87890625 L 7.0488281 1.8515625 L 2.625 1.8515625 L 1.2148438 3.1640625 L 2.625 4.6230469 L 7.0488281 4.6230469 L 7.0488281 6.1054688 L 6.0039062 6.1054688 L 6.0039062 8.8769531 L 7.0488281 8.8769531 L 7.0488281 16 L 8.9941406 16 L 8.9941406 8.8769531 L 13.685547 8.8769531 L 15.095703 7.4179688 L 13.685547 6.1054688 L 8.9941406 6.1054688 L 8.9941406 4.6230469 L 10.306641 4.6230469 L 10.306641 1.8515625 L 8.9941406 1.8515625 L 8.9941406 0.87890625 L 7.0488281 0.87890625 z "
       transform="translate(0,1036.3622)"
       id="rect8159" />
  </g>
</svg>

<?xml version="1.0" encoding="UTF-8"?>
<svg version="1.1" viewBox="0 0 16 16" xmlns="http://www.w3.org/2000/svg" xmlns:cc="http://creativecommons.org/ns#" xmlns:dc="http://purl.org/dc/elements/1.1/" xmlns:rdf="http://www.w3.org/1999/02/22-rdf-syntax-ns#">
 <metadata>
  <rdf:RDF>
   <cc:Work rdf:about="">
    <dc:format>image/svg+xml</dc:format>
    <dc:type rdf:resource="http://purl.org/dc/dcmitype/StillImage"/>
    <dc:title/>
   </cc:Work>
  </rdf:RDF>
 </metadata>
 <g transform="translate(0 -1036.4)">
  <path transform="translate(0 1036.4)" d="m7.0488 0.87891v0.97266h-4.4238l-1.4102 1.3125 1.4102 1.459h4.4238v1.4824h-1.0449v2.7715h1.0449v7.123h1.9453v-7.123h4.6914l1.4102-1.459-1.4102-1.3125h-4.6914v-1.4824h1.3125v-2.7715h-1.3125v-0.97266h-1.9453z" color="#000000" fill-rule="evenodd" solid-color="#000000" stroke="#fff" stroke-linecap="square" stroke-width=".5" style="isolation:auto;mix-blend-mode:normal"/>
 </g>
</svg>
